src/dark/hiso font dark_2692.svg

<svg xmlns="http://www.w3.org/2000/svg" width="126" height="126" viewBox="0 0 126 126"><path fill="#000101" d="M0 49.5v54l27 13.5 27-13.5v-18l54-27v-18l-9-4.5-45 22.5v-9l-27-13.5-27 13.5zm27-10.15l23.646 11.827-23.646 11.823-23.646-11.822 23.646-11.828zm72 0l5.65 2.83-50.65 25.32v-5.65l45-22.5zm-96 15l24 12v47.3l-24-12v-47.3z"/></svg>

<svg xmlns="http://www.w3.org/2000/svg" width="126" height="126"><path fill="#000101" d="M0 49.5v54L27 117l27-13.5v-18l54-27v-18L99 36 54 58.5v-9L27 36 0 49.5zm27-10.15l23.646 11.827L27 63 3.354 51.178 27 39.35zm72 0l5.65 2.83L54 67.5v-5.65l45-22.5zm-96 15l24 12v47.3l-24-12v-47.3z"/></svg>
